images/digits-icon.svg

<svg width="224" height="153" viewBox="0 0 224 153" fill="none" xmlns="http://www.w3.org/2000/svg">
<path fill-rule="evenodd" clip-rule="evenodd" d="M16.2511 66.0307L44.8426 38.939H107.626L130.916 14.809L207.749 15.0703L208.01 107.005L176.376 138.627L47.8842 138.539L16.2511 119.462V66.0307Z" fill="#0D2021" fill-opacity="0.5"/>
<path d="M15.0344 64.8112L43.6259 37.6323L44.1473 37.1096H106.931L129.7 13.5023L130.221 12.9797H131.003L207.923 13.241H209.661V14.9832L209.835 106.918V107.615L177.072 140.456L47.4497 140.369L14.4261 120.507V65.3338L15.0344 64.8112ZM45.5378 40.6812L17.9892 66.8147V118.504L48.4056 136.797L175.594 136.884L206.185 106.221L206.011 16.7255L131.611 16.4641L108.843 39.9843L108.321 40.507H107.539L45.5378 40.6812Z" fill="#02F7EA" fill-opacity="0.3"/>
<path d="M103.889 25.5238L127.875 0.784006L128.396 0.261335H152.208V3.83292H129.873L105.888 28.5727L105.366 29.0953H90.2451V25.5238H103.889ZM192.628 0.261335V3.83292H164.722V0.261335H192.628ZM224 0V19.8615H220.437V3.57158H204.447V0H224ZM224 85.0528H220.437V28.6598H224V85.0528ZM224 97.1613V115.106L186.197 153H167.425V149.428H184.719L220.35 113.713V96.3773H223.913V97.1613H224ZM72.4781 153V149.428H152.999V153H72.4781ZM57.8782 153H38.064L37.8902 152.913L37.6295 152.739L0.869042 130.525L0 130.002V108.312H3.56307V127.912L39.1069 149.341H58.7472V152.913H57.8782V153ZM0.0869042 60.8911L0.608329 60.3685L37.3688 26.0464L37.8902 25.5238H57.7913V29.0953H39.3676L3.73688 62.4592V79.7073H0.0869042V60.8911Z" fill="#02F7EA" fill-opacity="0.3"/>
</svg>

<svg width="224" height="153" fill="none" xmlns="http://www.w3.org/2000/svg"><path fill-rule="evenodd" clip-rule="evenodd" d="M16.251 66.03l28.592-27.09h62.783l23.29-24.13 76.833.261.261 91.935-31.634 31.622-128.492-.088-31.633-19.077V66.031z" fill="#0D2021" fill-opacity=".5"/><path d="M15.034 64.811l28.592-27.179.521-.522h62.784L129.7 13.502l.521-.522h.782l76.92.261h1.738v1.742l.174 91.935v.697l-32.763 32.841-129.622-.087-33.024-19.862V65.334l.608-.523zm30.504-24.13L17.989 66.815v51.689l30.417 18.293 127.188.087 30.591-30.663-.174-89.496-74.4-.26-22.768 23.52-.522.522h-.782l-62.001.174z" fill="#02F7EA" fill-opacity=".3"/><path d="M103.889 25.524L127.875.784l.521-.523h23.812v3.572h-22.335l-23.985 24.74-.522.522h-15.12v-3.571h13.643zM192.628.26v3.572h-27.906V.26h27.906zM224 0v19.861h-3.563V3.572h-15.99V0H224zm0 85.053h-3.563V28.66H224v56.393zm0 12.108v17.945L186.197 153h-18.772v-3.572h17.294l35.631-35.715V96.377h3.563v.784H224zM72.478 153v-3.572H153V153H72.48zm-14.6 0H38.064l-.174-.087-.26-.174L.868 130.525 0 130.002v-21.69h3.563v19.6l35.544 21.429h19.64v3.572h-.869V153zM.087 60.891l.521-.523 36.76-34.322.522-.522h19.901v3.571H39.368L3.737 62.46v17.248H.087V60.891z" fill="#02F7EA" fill-opacity=".3"/></svg>
